images/section-social-icons/facebook_icon.svg

<svg width="70" height="70" viewBox="0 0 70 70" fill="none" xmlns="http://www.w3.org/2000/svg">
<path d="M26.827 62.7083H38.4937V39.3458H49.0054L50.1604 27.7375H38.4937V21.875C38.4937 21.1014 38.801 20.3595 39.348 19.8126C39.8949 19.2656 40.6368 18.9583 41.4104 18.9583H50.1604V7.29163H41.4104C37.5426 7.29163 33.8333 8.82808 31.0984 11.563C28.3635 14.2979 26.827 18.0072 26.827 21.875V27.7375H20.9937L19.8387 39.3458H26.827V62.7083Z" fill="#CCCCCC"/>
</svg>

<svg width="70" height="70" fill="none" xmlns="http://www.w3.org/2000/svg"><path d="M26.827 62.708h11.667V39.346h10.511l1.155-11.608H38.494v-5.863a2.916 2.916 0 0 1 2.916-2.917h8.75V7.292h-8.75a14.583 14.583 0 0 0-14.583 14.583v5.863h-5.833l-1.155 11.608h6.988v23.362z" fill="#CCC"/></svg>
